X:507
T:Paddy Fahy's
R:jig
C:Paddy Fahey (1916-2019)
S:James Keane on Youtube
H:Cf. #537
Z:id:hn-jig-507
M:6/8
L:1/8
K:G
DGA B2d | cBG ABc | dBd cAc | BGB AFA |
DGA B2d | cBG ABc | dfa fdc |1 AGF G2F :|2 AGF GBd ||
|: g2a bag | fga gfd | g2a bag | f/g/af g2a |
gdB GBd | cBG ABc | dfa fdc |1 AGF GBd :|2 AGF G2F ||

